X:0018
M:2/4
L:1/8
Q:1/4=144
K:A Mixolydian
g|fgaf |geeg|fgaA    |B2Bg|fgaf |geeg|fedB|A2A:|

